src/assets/images/landing/1-au-prototype.svg

<svg width="84" height="182" viewBox="0 0 84 182" fill="none" xmlns="http://www.w3.org/2000/svg">
<path d="M74.1582 1.68146L64.1202 1.68146V9.40299H74.1582V1.68146Z" fill="#BEC0BF"/>
<path d="M75.1875 2.96863H72.871V8.11632H75.1875V2.96863Z" fill="#BEC0BF"/>
<path d="M30.2734 21.7577C32.6413 23.4049 33.0617 25.2753 32.9759 26.0045L51.5077 26.0045C52.3227 23.0017 54.3646 16.507 56.0119 14.5509C58.071 12.1057 60.0013 12.7492 64.7629 12.1057C68.5722 11.591 68.8381 4.42712 68.495 0.909538C58.7143 0.223179 37.9177 -0.737723 32.9759 0.909538C26.7987 2.96861 17.0181 13.6501 18.1763 16.9961C19.3345 20.3421 27.3135 19.6986 30.2734 21.7577Z" fill="#D8D9D9"/>
<path d="M14.3152 68.0871C18.4334 59.3361 28.7287 45.4802 33.3617 39.6461H49.0621C51.164 40.0751 56.0509 40.9573 56.9123 42.4774C59.1001 46.3381 54.2098 46.9816 54.2098 50.3276C54.2098 53.6736 56.9123 51.7432 56.9123 54.5744C56.9123 57.4057 52.6655 59.7221 54.2098 61.7812C55.7541 63.8403 56.9123 65.1272 56.9123 68.0871C56.9123 71.0471 52.6655 71.1757 52.6655 76.066C52.6655 80.9564 73.2562 89.3213 75.7014 91.7665C78.1465 94.2117 82.9082 119.564 83.809 132.305C84.7099 145.045 82.3934 167.952 77.5031 175.288C72.6128 182.623 19.9777 182.237 9.16753 177.99C-1.64262 173.743 0.673843 157.142 0.0303802 138.997C-0.613083 120.851 9.16753 93.5682 9.16753 91.7665C9.16753 89.9648 6.72237 89.3213 6.07892 87.777C5.43546 86.2327 9.16753 79.026 14.3152 68.0871Z" fill="#3BAB68"/>
<path d="M25.5123 78.1251C28.395 76.6838 55.3689 91.0801 68.4955 98.4585C72.2276 106.437 75.4449 127.157 75.9596 136.165C76.4744 145.174 75.7023 166.151 72.0989 170.655C68.4955 175.159 18.5629 174.001 13.93 170.655C9.29707 167.309 8.78229 143.115 10.0692 127.157C11.3561 111.199 21.9089 79.9268 25.5123 78.1251Z" fill="#2E8551"/>
<path d="M53.3096 26.6481V40.2895H31.818V26.6481C33.1478 25.9618 37.9952 24.5891 41.5986 24.5891C45.202 24.5891 50.4783 25.9618 53.3096 26.6481Z" fill="#BEC0BF"/>
<path d="M73.6427 27.2918C71.4549 20.9859 68.4521 14.8086 67.2081 10.6905L61.1596 12.4922C63.1758 15.1089 65.4064 19.6989 67.2081 23.0449C68.4894 25.4245 78.7904 40.0323 79.3052 38.488C79.8199 36.9437 75.2927 32.0475 73.6427 27.2918Z" fill="#BEC0BF"/>
<path d="M26.12 124.3C25.1467 124.3 24.24 124.14 23.4 123.82C22.56 123.487 21.82 123.02 21.18 122.42C20.5533 121.807 20.0667 121.08 19.72 120.24C19.3733 119.4 19.2 118.473 19.2 117.46C19.2 116.367 19.4 115.387 19.8 114.52C20.2 113.64 20.7467 112.893 21.44 112.28C22.1333 111.667 22.9333 111.2 23.84 110.88C24.7467 110.56 25.7067 110.4 26.72 110.4C27.2133 110.4 27.7133 110.433 28.22 110.5C28.74 110.567 29.22 110.66 29.66 110.78C30.1133 110.887 30.4867 111.007 30.78 111.14V114.3H30.32C30.2667 113.513 30.0467 112.9 29.66 112.46C29.2733 112.007 28.7933 111.687 28.22 111.5C27.66 111.3 27.0733 111.2 26.46 111.2C25.5133 111.2 24.6333 111.413 23.82 111.84C23.0067 112.267 22.3533 112.92 21.86 113.8C21.38 114.667 21.14 115.78 21.14 117.14C21.14 118.433 21.3667 119.56 21.82 120.52C22.2733 121.467 22.8733 122.2 23.62 122.72C24.38 123.24 25.22 123.5 26.14 123.5C26.98 123.5 27.72 123.307 28.36 122.92C29.0133 122.52 29.5467 122.02 29.96 121.42C30.3733 120.82 30.6467 120.213 30.78 119.6H31.24L31.12 121.94C30.6133 122.567 29.96 123.12 29.16 123.6C28.36 124.067 27.3467 124.3 26.12 124.3ZM35.342 110.36C35.4487 110.6 35.5154 110.84 35.542 111.08C35.5687 111.307 35.582 111.513 35.582 111.7C35.582 112.353 35.462 112.953 35.222 113.5C34.982 114.033 34.6754 114.467 34.302 114.8C33.942 115.133 33.5754 115.333 33.202 115.4V114.92C33.5087 114.693 33.7487 114.34 33.922 113.86C34.0954 113.367 34.182 112.893 34.182 112.44C34.182 112.267 34.1687 112.067 34.142 111.84C34.1154 111.613 34.0487 111.407 33.942 111.22C34.0754 111.033 34.2754 110.853 34.542 110.68C34.8087 110.507 35.0754 110.4 35.342 110.36ZM39.9527 124.3C39.2727 124.3 38.6193 124.14 37.9927 123.82C37.3793 123.5 36.8727 123.02 36.4727 122.38C36.086 121.727 35.8927 120.9 35.8927 119.9C35.8927 118.887 36.0927 118.007 36.4927 117.26C36.8927 116.513 37.426 115.933 38.0927 115.52C38.7593 115.107 39.486 114.9 40.2727 114.9C40.846 114.9 41.3727 115.013 41.8527 115.24C42.346 115.467 42.7393 115.813 43.0327 116.28C43.3393 116.747 43.4927 117.34 43.4927 118.06L37.4927 118.84C37.4927 118.907 37.4927 118.98 37.4927 119.06C37.4927 120.287 37.7727 121.247 38.3327 121.94C38.8927 122.633 39.6393 122.98 40.5727 122.98C41.106 122.98 41.5993 122.873 42.0527 122.66C42.506 122.433 42.9127 122.153 43.2727 121.82L43.5927 122.14C43.2193 122.78 42.7193 123.3 42.0927 123.7C41.4793 124.1 40.766 124.3 39.9527 124.3ZM39.8527 115.64C39.1593 115.64 38.626 115.887 38.2527 116.38C37.8793 116.873 37.646 117.48 37.5527 118.2L41.6927 117.66C41.6127 117.087 41.4393 116.607 41.1727 116.22C40.906 115.833 40.466 115.64 39.8527 115.64ZM48.0309 124.3C47.0843 124.3 46.3576 124.12 45.8509 123.76C45.3443 123.4 45.0909 122.94 45.0909 122.38C45.0909 122.18 45.1309 121.96 45.2109 121.72C45.2909 121.467 45.4309 121.22 45.6309 120.98H46.0909C46.1043 121.833 46.2843 122.487 46.6309 122.94C46.9776 123.393 47.5243 123.62 48.2709 123.62C48.9376 123.62 49.4309 123.46 49.7509 123.14C50.0709 122.82 50.2309 122.453 50.2309 122.04C50.2309 121.667 50.1109 121.36 49.8709 121.12C49.6443 120.88 49.3443 120.673 48.9709 120.5C48.6109 120.313 48.2243 120.14 47.8109 119.98C47.3976 119.807 47.0043 119.62 46.6309 119.42C46.2709 119.207 45.9709 118.947 45.7309 118.64C45.5043 118.333 45.3909 117.947 45.3909 117.48C45.3909 116.747 45.6843 116.133 46.2709 115.64C46.8576 115.147 47.6776 114.9 48.7309 114.9C49.1443 114.9 49.5643 114.94 49.9909 115.02C50.4176 115.087 50.8176 115.227 51.1909 115.44V117.74H50.7309C50.6376 116.953 50.3843 116.4 49.9709 116.08C49.5576 115.747 49.0709 115.58 48.5109 115.58C47.9643 115.58 47.5509 115.7 47.2709 115.94C46.9909 116.18 46.8509 116.493 46.8509 116.88C46.8509 117.24 46.9643 117.54 47.1909 117.78C47.4309 118.007 47.7309 118.207 48.0909 118.38C48.4643 118.553 48.8509 118.727 49.2509 118.9C49.6643 119.06 50.0509 119.253 50.4109 119.48C50.7843 119.693 51.0843 119.967 51.3109 120.3C51.5509 120.62 51.6709 121.027 51.6709 121.52C51.6709 122.413 51.3243 123.1 50.6309 123.58C49.9376 124.06 49.0709 124.3 48.0309 124.3ZM58.8736 122.26L59.1936 122.58C58.8736 123.06 58.5069 123.467 58.0936 123.8C57.6803 124.133 57.1403 124.3 56.4736 124.3C55.9403 124.3 55.5136 124.193 55.1936 123.98C54.8869 123.767 54.6669 123.487 54.5336 123.14C54.4003 122.78 54.3336 122.393 54.3336 121.98V116.02H52.9536V115.2H54.3336V112.46L56.0336 112.16C55.9936 112.667 55.9669 113.173 55.9536 113.68C55.9403 114.187 55.9336 114.693 55.9336 115.2H58.8936V116.02H56.5536C56.3269 116.02 56.1669 116.067 56.0736 116.16C55.9803 116.253 55.9336 116.413 55.9336 116.64V121.56C55.9336 121.987 56.0069 122.353 56.1536 122.66C56.3136 122.967 56.6336 123.12 57.1136 123.12C57.3936 123.12 57.6803 123.053 57.9736 122.92C58.2669 122.773 58.5669 122.553 58.8736 122.26ZM23.6 152.04V152.5H18.9V152.04C19.2067 152.027 19.4467 151.987 19.62 151.92C19.7933 151.853 19.9133 151.713 19.98 151.5C20.06 151.287 20.1 150.947 20.1 150.48V141.44C20.1 141.08 20.0467 140.847 19.94 140.74C19.8333 140.62 19.6867 140.56 19.5 140.56C19.3533 140.56 19.2067 140.58 19.06 140.62C18.9267 140.647 18.7867 140.693 18.64 140.76L18.44 140.3L21.66 138.8L21.78 138.92C21.7533 139.04 21.72 139.273 21.68 139.62C21.6533 139.967 21.64 140.333 21.64 140.72H21.68V140.74C22.0267 140.247 22.46 139.82 22.98 139.46C23.5133 139.087 24.1467 138.9 24.88 138.9C25.5067 138.9 26.0867 139.067 26.62 139.4C27.1667 139.72 27.6 140.193 27.92 140.82C28.2533 141.433 28.42 142.193 28.42 143.1C28.42 143.953 28.2667 144.707 27.96 145.36C27.6667 146 27.2667 146.54 26.76 146.98C26.2667 147.42 25.7133 147.753 25.1 147.98C24.5 148.193 23.8933 148.3 23.28 148.3C22.9733 148.3 22.6867 148.28 22.42 148.24C22.1667 148.213 21.9267 148.173 21.7 148.12V150.48C21.7 150.947 21.7467 151.287 21.84 151.5C21.9333 151.713 22.1133 151.853 22.38 151.92C22.66 151.987 23.0667 152.027 23.6 152.04ZM23.8 147.4C24.6667 147.4 25.38 147.113 25.94 146.54C26.5 145.953 26.78 145.033 26.78 143.78C26.78 142.633 26.5467 141.733 26.08 141.08C25.6133 140.427 25.0067 140.1 24.26 140.1C23.8067 140.1 23.36 140.22 22.92 140.46C22.48 140.7 22.0733 140.993 21.7 141.34V146.58C22.02 146.913 22.3733 147.133 22.76 147.24C23.16 147.347 23.5067 147.4 23.8 147.4ZM32.5077 148.3C31.881 148.3 31.3677 148.14 30.9677 147.82C30.581 147.487 30.3877 147.013 30.3877 146.4C30.3877 145.907 30.541 145.453 30.8477 145.04C31.1543 144.627 31.661 144.247 32.3677 143.9C33.0743 143.553 34.0343 143.233 35.2477 142.94V141.64C35.2477 141.093 35.1277 140.64 34.8877 140.28C34.661 139.92 34.221 139.74 33.5677 139.74C32.941 139.74 32.441 139.94 32.0677 140.34C31.7077 140.727 31.4543 141.333 31.3077 142.16H30.8477V139.66C31.3143 139.433 31.8077 139.253 32.3277 139.12C32.861 138.973 33.4477 138.9 34.0877 138.9C34.821 138.9 35.381 139 35.7677 139.2C36.1677 139.387 36.4477 139.653 36.6077 140C36.7677 140.347 36.8477 140.753 36.8477 141.22V146.06C36.8477 146.767 37.0677 147.12 37.5077 147.12C37.6677 147.12 37.8477 147.067 38.0477 146.96C38.261 146.853 38.5077 146.633 38.7877 146.3L39.1077 146.62C38.4943 147.673 37.761 148.2 36.9077 148.2C36.0277 148.2 35.4877 147.753 35.2877 146.86H35.2477C34.5143 147.82 33.601 148.3 32.5077 148.3ZM33.2477 147.12C33.8877 147.12 34.5543 146.827 35.2477 146.24V143.56C34.2877 143.8 33.581 144.067 33.1277 144.36C32.6743 144.64 32.3743 144.927 32.2277 145.22C32.0943 145.5 32.0277 145.76 32.0277 146C32.0277 146.387 32.1477 146.673 32.3877 146.86C32.6277 147.033 32.9143 147.12 33.2477 147.12ZM39.937 148V147.54C40.2437 147.527 40.4837 147.487 40.657 147.42C40.8304 147.353 40.9504 147.213 41.017 147C41.097 146.787 41.137 146.447 41.137 145.98V141.4C41.137 141.053 41.0837 140.827 40.977 140.72C40.8704 140.613 40.7237 140.56 40.537 140.56C40.3904 140.56 40.2437 140.58 40.097 140.62C39.9637 140.647 39.8237 140.693 39.677 140.76L39.477 140.3L42.697 138.8L42.817 138.92C42.7904 139.04 42.757 139.3 42.717 139.7C42.6904 140.087 42.677 140.513 42.677 140.98H42.717C43.2637 140.167 43.8637 139.62 44.517 139.34C45.1837 139.06 45.877 138.947 46.597 139C46.7037 139.987 46.7037 140.973 46.597 141.96H46.137C46.0837 141.413 45.957 141.033 45.757 140.82C45.5704 140.593 45.3037 140.48 44.957 140.48C44.517 140.48 44.1237 140.573 43.777 140.76C43.4304 140.947 43.0837 141.253 42.737 141.68V145.98C42.737 146.447 42.7837 146.787 42.877 147C42.9704 147.213 43.1504 147.353 43.417 147.42C43.697 147.487 44.1037 147.527 44.637 147.54V148H39.937ZM53.2095 146.26L53.5295 146.58C53.2095 147.06 52.8429 147.467 52.4295 147.8C52.0162 148.133 51.4762 148.3 50.8095 148.3C50.2762 148.3 49.8495 148.193 49.5295 147.98C49.2229 147.767 49.0029 147.487 48.8695 147.14C48.7362 146.78 48.6695 146.393 48.6695 145.98V140.02H47.2895V139.2H48.6695V136.46L50.3695 136.16C50.3295 136.667 50.3029 137.173 50.2895 137.68C50.2762 138.187 50.2695 138.693 50.2695 139.2H53.2295V140.02H50.8895C50.6629 140.02 50.5029 140.067 50.4095 140.16C50.3162 140.253 50.2695 140.413 50.2695 140.64V145.56C50.2695 145.987 50.3429 146.353 50.4895 146.66C50.6495 146.967 50.9695 147.12 51.4495 147.12C51.7295 147.12 52.0162 147.053 52.3095 146.92C52.6029 146.773 52.9029 146.553 53.2095 146.26ZM57.8352 145.98C57.8352 146.447 57.8818 146.787 57.9752 147C58.0685 147.213 58.2352 147.353 58.4752 147.42C58.7285 147.487 59.0818 147.527 59.5352 147.54V148H55.0352V147.54C55.3285 147.527 55.5618 147.487 55.7352 147.42C55.9085 147.353 56.0352 147.213 56.1152 147C56.1952 146.787 56.2352 146.447 56.2352 145.98V141.46C56.2352 141.087 56.1752 140.847 56.0552 140.74C55.9485 140.62 55.8018 140.56 55.6152 140.56C55.4418 140.56 55.2552 140.593 55.0552 140.66C54.8685 140.713 54.6952 140.773 54.5352 140.84L54.3352 140.38L57.7952 138.8L57.9152 138.92C57.9018 139.027 57.8818 139.313 57.8552 139.78C57.8418 140.247 57.8352 140.8 57.8352 141.44V145.98ZM57.0352 136.92C56.7418 136.92 56.4952 136.82 56.2952 136.62C56.0952 136.42 55.9952 136.173 55.9952 135.88C55.9952 135.6 56.0952 135.36 56.2952 135.16C56.4952 134.96 56.7418 134.86 57.0352 134.86C57.3285 134.86 57.5752 134.96 57.7752 135.16C57.9752 135.36 58.0752 135.6 58.0752 135.88C58.0752 136.173 57.9752 136.42 57.7752 136.62C57.5752 136.82 57.3285 136.92 57.0352 136.92ZM67.5525 143.96C67.5392 142.373 67.5125 140.813 67.4725 139.28C67.4458 137.733 67.3725 136.207 67.2525 134.7L69.0925 133.86C69.0792 135.38 68.9992 137.007 68.8525 138.74C68.7058 140.473 68.4592 142.213 68.1125 143.96H67.5525ZM67.7525 148.3C67.4592 148.3 67.2125 148.2 67.0125 148C66.8125 147.8 66.7125 147.553 66.7125 147.26C66.7125 146.98 66.8125 146.74 67.0125 146.54C67.2125 146.34 67.4592 146.24 67.7525 146.24C68.0458 146.24 68.2925 146.34 68.4925 146.54C68.6925 146.74 68.7925 146.98 68.7925 147.26C68.7925 147.553 68.6925 147.8 68.4925 148C68.2925 148.2 68.0458 148.3 67.7525 148.3Z" fill="black"/>
</svg>

<svg width="84" height="182" fill="none" xmlns="http://www.w3.org/2000/svg"><path d="M74.158 1.681H64.12v7.722h10.038V1.681z" fill="#BEC0BF"/><path d="M75.188 2.969H72.87v5.147h2.317V2.97z" fill="#BEC0BF"/><path d="M30.273 21.758c2.368 1.647 2.789 3.517 2.703 4.247h18.532c.815-3.003 2.857-9.498 4.504-11.454 2.059-2.445 3.99-1.802 8.75-2.445 3.81-.515 4.076-7.679 3.733-11.196-9.78-.687-30.577-1.648-35.52 0C26.8 2.969 17.019 13.65 18.177 16.996c1.159 3.346 9.138 2.703 12.097 4.762z" fill="#D8D9D9"/><path d="M14.315 68.087c4.118-8.75 14.414-22.607 19.047-28.44h15.7c2.102.428 6.989 1.31 7.85 2.83 2.188 3.861-2.702 4.505-2.702 7.85 0 3.347 2.702 1.416 2.702 4.247 0 2.832-4.246 5.148-2.702 7.207 1.544 2.06 2.702 3.346 2.702 6.306s-4.246 3.089-4.246 7.979c0 4.89 20.59 13.255 23.035 15.7 2.446 2.446 7.207 27.798 8.108 40.539.9 12.74-1.416 35.647-6.306 42.983-4.89 7.335-57.525 6.949-68.335 2.702-10.81-4.247-8.494-20.848-9.138-38.993-.643-18.146 9.138-45.429 9.138-47.23 0-1.802-2.446-2.446-3.09-3.99-.643-1.544 3.09-8.751 8.237-19.69z" fill="#3BAB68"/><path d="M25.512 78.125C28.395 76.684 55.37 91.08 68.496 98.46c3.732 7.978 6.949 28.698 7.464 37.706.514 9.009-.258 29.986-3.861 34.49-3.603 4.504-53.536 3.346-58.169 0-4.633-3.346-5.148-27.54-3.86-43.498 1.286-15.958 11.839-47.23 15.442-49.032z" fill="#2E8551"/><path d="M53.31 26.648V40.29H31.818V26.65c1.33-.687 6.177-2.06 9.78-2.06 3.604 0 8.88 1.373 11.712 2.06zm20.333.644c-2.188-6.306-5.19-12.483-6.435-16.602l-6.048 1.802c2.016 2.617 4.246 7.207 6.048 10.553 1.281 2.38 11.582 16.987 12.097 15.443.515-1.544-4.012-6.44-5.662-11.196z" fill="#BEC0BF"/><path d="M26.12 124.3c-.973 0-1.88-.16-2.72-.48-.84-.333-1.58-.8-2.22-1.4a6.46 6.46 0 01-1.46-2.18c-.347-.84-.52-1.767-.52-2.78 0-1.093.2-2.073.6-2.94.4-.88.947-1.627 1.64-2.24a7.203 7.203 0 012.4-1.4 8.59 8.59 0 012.88-.48c.493 0 .993.033 1.5.1.52.067 1 .16 1.44.28a6.22 6.22 0 011.12.36v3.16h-.46c-.053-.787-.273-1.4-.66-1.84a3.134 3.134 0 00-1.44-.96c-.56-.2-1.147-.3-1.76-.3-.947 0-1.827.213-2.64.64-.813.427-1.467 1.08-1.96 1.96-.48.867-.72 1.98-.72 3.34 0 1.293.227 2.42.68 3.38.453.947 1.053 1.68 1.8 2.2.76.52 1.6.78 2.52.78.84 0 1.58-.193 2.22-.58.653-.4 1.187-.9 1.6-1.5.413-.6.687-1.207.82-1.82h.46l-.12 2.34c-.507.627-1.16 1.18-1.96 1.66-.8.467-1.813.7-3.04.7zm9.222-13.94c.107.24.173.48.2.72.027.227.04.433.04.62 0 .653-.12 1.253-.36 1.8-.24.533-.547.967-.92 1.3-.36.333-.727.533-1.1.6v-.48c.307-.227.547-.58.72-1.06.173-.493.26-.967.26-1.42 0-.173-.013-.373-.04-.6a1.614 1.614 0 00-.2-.62c.133-.187.333-.367.6-.54.267-.173.533-.28.8-.32zm4.61 13.94c-.68 0-1.333-.16-1.96-.48-.613-.32-1.12-.8-1.52-1.44-.386-.653-.58-1.48-.58-2.48 0-1.013.2-1.893.6-2.64.4-.747.934-1.327 1.6-1.74a4.062 4.062 0 012.18-.62c.574 0 1.1.113 1.58.34a2.7 2.7 0 011.18 1.04c.307.467.46 1.06.46 1.78l-6 .78v.22c0 1.227.28 2.187.84 2.88.56.693 1.307 1.04 2.24 1.04.534 0 1.027-.107 1.48-.32.454-.227.86-.507 1.22-.84l.32.32a4.54 4.54 0 01-1.5 1.56c-.613.4-1.326.6-2.14.6zm-.1-8.66c-.693 0-1.226.247-1.6.74-.373.493-.606 1.1-.7 1.82l4.14-.54c-.08-.573-.253-1.053-.52-1.44-.266-.387-.706-.58-1.32-.58zm8.179 8.66c-.947 0-1.673-.18-2.18-.54-.507-.36-.76-.82-.76-1.38 0-.2.04-.42.12-.66.08-.253.22-.5.42-.74h.46c.013.853.193 1.507.54 1.96.347.453.893.68 1.64.68.667 0 1.16-.16 1.48-.48.32-.32.48-.687.48-1.1 0-.373-.12-.68-.36-.92a2.892 2.892 0 00-.9-.62c-.36-.187-.747-.36-1.16-.52-.413-.173-.807-.36-1.18-.56a3.187 3.187 0 01-.9-.78c-.227-.307-.34-.693-.34-1.16 0-.733.293-1.347.88-1.84.587-.493 1.407-.74 2.46-.74.413 0 .833.04 1.26.12.427.067.827.207 1.2.42v2.3h-.46c-.093-.787-.347-1.34-.76-1.66-.413-.333-.9-.5-1.46-.5-.547 0-.96.12-1.24.36s-.42.553-.42.94c0 .36.113.66.34.9.24.227.54.427.9.6.373.173.76.347 1.16.52.413.16.8.353 1.16.58.373.213.673.487.9.82.24.32.36.727.36 1.22 0 .893-.347 1.58-1.04 2.06-.693.48-1.56.72-2.6.72zm10.843-2.04l.32.32c-.32.48-.687.887-1.1 1.22-.414.333-.954.5-1.62.5-.534 0-.96-.107-1.28-.32a1.777 1.777 0 01-.66-.84 3.3 3.3 0 01-.2-1.16v-5.96h-1.38v-.82h1.38v-2.74l1.7-.3c-.04.507-.067 1.013-.08 1.52-.014.507-.02 1.013-.02 1.52h2.96v.82h-2.34c-.227 0-.387.047-.48.14-.094.093-.14.253-.14.48v4.92c0 .427.073.793.22 1.1.16.307.48.46.96.46.28 0 .566-.067.86-.2.293-.147.593-.367.9-.66zM23.6 152.04v.46h-4.7v-.46c.307-.013.547-.053.72-.12.173-.067.293-.207.36-.42.08-.213.12-.553.12-1.02v-9.04c0-.36-.053-.593-.16-.7a.558.558 0 00-.44-.18c-.147 0-.293.02-.44.06a1.94 1.94 0 00-.42.14l-.2-.46 3.22-1.5.12.12a8.17 8.17 0 00-.1.7c-.027.347-.04.713-.04 1.1h.04v.02c.347-.493.78-.92 1.3-1.28.533-.373 1.167-.56 1.9-.56.627 0 1.207.167 1.74.5.547.32.98.793 1.3 1.42.333.613.5 1.373.5 2.28 0 .853-.153 1.607-.46 2.26a4.717 4.717 0 01-1.2 1.62 5.169 5.169 0 01-1.66 1c-.6.213-1.207.32-1.82.32-.307 0-.593-.02-.86-.06a5.919 5.919 0 01-.72-.12v2.36c0 .467.047.807.14 1.02.093.213.273.353.54.42.28.067.687.107 1.22.12zm.2-4.64c.867 0 1.58-.287 2.14-.86.56-.587.84-1.507.84-2.76 0-1.147-.233-2.047-.7-2.7-.467-.653-1.073-.98-1.82-.98-.453 0-.9.12-1.34.36a6.02 6.02 0 00-1.22.88v5.24c.32.333.673.553 1.06.66.4.107.747.16 1.04.16zm8.708.9c-.627 0-1.14-.16-1.54-.48-.387-.333-.58-.807-.58-1.42 0-.493.153-.947.46-1.36.306-.413.813-.793 1.52-1.14.706-.347 1.666-.667 2.88-.96v-1.3c0-.547-.12-1-.36-1.36-.227-.36-.667-.54-1.32-.54-.627 0-1.127.2-1.5.6-.36.387-.614.993-.76 1.82h-.46v-2.5a7.78 7.78 0 011.48-.54 6.612 6.612 0 011.76-.22c.733 0 1.293.1 1.68.3.4.187.68.453.84.8.16.347.24.753.24 1.22v4.84c0 .707.22 1.06.66 1.06.16 0 .34-.053.54-.16.213-.107.46-.327.74-.66l.32.32c-.614 1.053-1.347 1.58-2.2 1.58-.88 0-1.42-.447-1.62-1.34h-.04c-.734.96-1.647 1.44-2.74 1.44zm.74-1.18c.64 0 1.306-.293 2-.88v-2.68c-.96.24-1.667.507-2.12.8-.454.28-.754.567-.9.86-.134.28-.2.54-.2.78 0 .387.12.673.36.86.24.173.526.26.86.26zm6.689.88v-.46c.307-.013.547-.053.72-.12.173-.067.293-.207.36-.42.08-.213.12-.553.12-1.02v-4.58c0-.347-.053-.573-.16-.68-.107-.107-.253-.16-.44-.16-.147 0-.293.02-.44.06a1.94 1.94 0 00-.42.14l-.2-.46 3.22-1.5.12.12c-.027.12-.06.38-.1.78-.027.387-.04.813-.04 1.28h.04c.547-.813 1.147-1.36 1.8-1.64a4.454 4.454 0 012.08-.34c.107.987.107 1.973 0 2.96h-.46c-.053-.547-.18-.927-.38-1.14-.187-.227-.453-.34-.8-.34-.44 0-.833.093-1.18.28-.347.187-.693.493-1.04.92v4.3c0 .467.047.807.14 1.02.093.213.273.353.54.42.28.067.687.107 1.22.12v.46h-4.7zm13.273-1.74l.32.32a5.39 5.39 0 01-1.1 1.22c-.414.333-.954.5-1.62.5-.534 0-.96-.107-1.28-.32a1.778 1.778 0 01-.66-.84 3.3 3.3 0 01-.2-1.16v-5.96h-1.38v-.82h1.38v-2.74l1.7-.3c-.04.507-.067 1.013-.08 1.52-.014.507-.02 1.013-.02 1.52h2.96v.82h-2.34c-.227 0-.387.047-.48.14-.094.093-.14.253-.14.48v4.92c0 .427.073.793.22 1.1.16.307.48.46.96.46.28 0 .566-.067.86-.2.293-.147.593-.367.9-.66zm4.625-.28c0 .467.047.807.14 1.02.093.213.26.353.5.42.253.067.607.107 1.06.12v.46h-4.5v-.46c.294-.013.527-.053.7-.12.173-.067.3-.207.38-.42.08-.213.12-.553.12-1.02v-4.52c0-.373-.06-.613-.18-.72a.559.559 0 00-.44-.18c-.173 0-.36.033-.56.1-.187.053-.36.113-.52.18l-.2-.46 3.46-1.58.12.12a20.15 20.15 0 00-.06.86c-.013.467-.02 1.02-.02 1.66v4.54zm-.8-9.06c-.293 0-.54-.1-.74-.3-.2-.2-.3-.447-.3-.74 0-.28.1-.52.3-.72.2-.2.447-.3.74-.3.294 0 .54.1.74.3.2.2.3.44.3.72 0 .293-.1.54-.3.74-.2.2-.447.3-.74.3zm10.517 7.04c-.013-1.587-.04-3.147-.08-4.68a73.7 73.7 0 00-.22-4.58l1.84-.84a64.761 64.761 0 01-.24 4.88 47.294 47.294 0 01-.74 5.22h-.56zm.2 4.34c-.293 0-.54-.1-.74-.3-.2-.2-.3-.447-.3-.74 0-.28.1-.52.3-.72.2-.2.447-.3.74-.3.294 0 .54.1.74.3.2.2.3.44.3.72 0 .293-.1.54-.3.74-.2.2-.446.3-.74.3z" fill="#000"/></svg>
